public/images/icons/40x40/twitter_40_white_purple.svg

<svg height="40" viewBox="0 0 40 40" width="40" xmlns="http://www.w3.org/2000/svg"><path d="m8.17648 20.136941c9.81136 0 15.17776-7.7478867 15.17776-14.46681919 0-.22006536 0-.43913944-.0156-.65722223 1.0439846-.71976157 1.9451697-1.61095833 2.66136-2.63186274-.9735658.41118694-2.0063376.68084321-3.06384.79996732 1.1135737-.63543173 1.9470085-1.63485566 2.3452-2.81227669-1.0471162.59224873-2.1926881 1.0096361-3.38728 1.23415033-1.6535139-1.67587278-4.2809319-2.08604853-6.4089488-1.00052426-2.1280168 1.08552428-3.2274052 3.39678397-2.6816912 5.63775737-4.28906843-.20494871-8.28518519-2.13589959-10.99384-5.31229847-1.41583233 2.32322081-.6926526 5.29530733 1.65152 6.78733115-.84890915-.02398162-1.67930945-.24225709-2.42112-.63640523v.06443356c.00069486 2.42031547 1.79062155 4.50493138 4.2796 4.98418298-.78533562.2041454-1.60931619.2339873-2.40864.0872331.69882585 2.0712144 2.70147754 3.4901017 4.98368 3.5309586-1.88891556 1.4149925-4.22233811 2.1831354-6.6248 2.1808279-.42442029-.0007766-.84842777-.0252703-1.26984-.0733551 2.43946139 1.4921587 5.27790994 2.283641 8.17648 2.2799564" fill="#1e1169" transform="translate(7 10)"/></svg>

<svg xmlns="http://www.w3.org/2000/svg" width="40" height="40" viewBox="0 0 40 40">
  <path fill="#1E1169" d="M8.17648,20.136941 C17.98784,20.136941 23.35424,12.3890543 23.35424,5.67012181 C23.35424,5.45005645 23.35424,5.23098237 23.33864,5.01289958 C24.3826246,4.29313801 25.2838097,3.40194125 26,2.38103684 C25.0264342,2.79222378 23.9936624,3.06188005 22.93616,3.18100416 C24.0497337,2.54557243 24.8831685,1.5461485 25.28136,0.368727471 C24.2342438,0.960976204 23.0886719,1.37836357 21.89408,1.6028778 C20.2405661,-0.0729949757 17.6131481,-0.48317073 15.4851312,0.602353543 C13.3571144,1.68787782 12.257726,3.99913751 12.80344,6.24011091 C8.51437157,6.0351622 4.51825481,4.10421132 1.8096,0.927812439 C0.393767667,3.25103325 1.1169474,6.22311977 3.46112,7.71514359 C2.61221085,7.69116197 1.78181055,7.4728865 1.04,7.07873836 C1.04,7.09955536 1.04,7.12136364 1.04,7.14317192 C1.04069486,9.56348739 2.83062155,11.6481033 5.3196,12.1273549 C4.53426438,12.3315003 3.71028381,12.3613422 2.91096,12.214588 C3.60978585,14.2858024 5.61243754,15.7046897 7.89464,15.7455466 C6.00572444,17.1605391 3.67230189,17.928682 1.26984,17.9263745 C0.845419712,17.9255979 0.421412228,17.9011042 0,17.8530194 C2.43946139,19.3451781 5.27790994,20.1366604 8.17648,20.1329758" transform="translate(7 10)"/>
</svg>
